img/svg_icons/like.svg

<svg width="28" height="28" viewBox="0 0 28 28" fill="none" xmlns="http://www.w3.org/2000/svg">
<path d="M2.99636 27.003C2.46664 26.998 1.96001 26.7854 1.58542 26.4108C1.21083 26.0363 0.998214 25.5296 0.993286 24.9999V11.0011C0.993286 9.90885 1.9079 8.99802 2.99636 8.99802H6.00096C6.74172 8.99802 7.39177 9.42508 7.73948 10.0373C8.41221 9.62161 9.0736 9.37973 9.50067 9.13407C10.506 8.55205 11.02 6.91936 11.2581 5.21486C11.3752 4.3645 11.4395 3.54437 11.5453 2.8603C11.5982 2.52016 11.6474 2.21781 11.7872 1.88522C11.8765 1.63297 12.0395 1.41339 12.2552 1.25501C12.4709 1.09663 12.7292 1.00675 12.9966 0.99707C14.4819 0.99707 15.6988 1.57909 16.4736 2.47103C17.2522 3.35918 17.615 4.4741 17.8115 5.57768C18.129 7.38422 18.008 8.91487 17.9476 10.0071H23.9946C25.6424 10.0071 27.003 11.3601 27.003 13.0042C27.003 13.5862 26.8367 14.0246 26.625 14.7049C26.4134 15.3889 26.1299 16.2128 25.8125 17.0934C25.1851 18.8546 24.4368 20.8501 23.9455 22.3203C23.7606 22.9528 23.4523 23.5424 23.0384 24.0551C22.7854 24.3484 22.4729 24.5846 22.1217 24.7481C21.7706 24.9117 21.3887 24.9988 21.0013 25.0037H8.99801C8.65718 25.0006 8.31951 24.9379 8.00025 24.8185V25.0075C8.00025 26.0959 7.0932 27.0068 6.00096 27.0068L2.99636 27.003ZM2.99636 24.9999H6.00096V11.0011H2.99636V24.9999ZM8.99801 23.0006H21.0013C21.2659 23.0006 21.349 22.9477 21.5229 22.7436C21.7596 22.4217 21.9387 22.0611 22.052 21.6778C22.5622 20.1472 23.3105 18.1554 23.9303 16.4169C24.2402 15.5477 24.5199 14.7427 24.7127 14.1115C24.9092 13.4841 25.0037 12.9172 25.0037 13.0004C25.0063 12.868 24.982 12.7365 24.9323 12.6137C24.8826 12.491 24.8085 12.3796 24.7146 12.2864C24.6206 12.1931 24.5086 12.1198 24.3855 12.0711C24.2624 12.0223 24.1307 11.999 23.9984 12.0026H16.912C16.7799 12.0031 16.6489 11.9775 16.5267 11.9271C16.4045 11.8768 16.2935 11.8027 16.2001 11.7093C16.1066 11.6158 16.0326 11.5048 15.9822 11.3826C15.9319 11.2604 15.9062 11.1295 15.9067 10.9973C15.9067 9.81814 16.1637 7.70925 15.85 5.91782C15.6913 5.02589 15.3965 4.27379 14.9694 3.78625C14.6001 3.37073 14.0924 3.10347 13.5408 3.03416C13.4388 3.60484 13.3708 4.57992 13.2423 5.49075C12.9815 7.35399 12.4902 9.71232 10.4984 10.865C9.75389 11.2921 9.0358 11.5453 8.60873 11.8401C8.17788 12.1349 8.00403 12.2936 8.00403 13.0004V21.9953C8.00403 22.5698 8.42732 23.0006 8.99801 23.0006Z" fill="#32A071"/>
</svg>

<svg width="28" height="28" fill="none" xmlns="http://www.w3.org/2000/svg"><path d="M2.996 27.003A2.022 2.022 0 01.993 25V11c0-1.092.915-2.003 2.003-2.003h3.005c.74 0 1.39.427 1.738 1.04.673-.416 1.335-.658 1.762-.904 1.005-.582 1.519-2.215 1.757-3.92.117-.85.182-1.67.287-2.354.053-.34.102-.642.242-.975a1.334 1.334 0 011.21-.888c1.485 0 2.702.582 3.477 1.474.778.888 1.141 2.003 1.337 3.107.318 1.806.197 3.337.137 4.43h6.047c1.647 0 3.008 1.352 3.008 2.996 0 .582-.166 1.02-.378 1.7a57.339 57.339 0 01-.813 2.39c-.627 1.76-1.375 3.756-1.867 5.226a4.991 4.991 0 01-.907 1.735 2.735 2.735 0 01-2.037.949H8.998A2.924 2.924 0 018 24.818v.19a2.017 2.017 0 01-1.999 1.999l-3.005-.004zm0-2.003h3.005V11H2.996v14zm6.002-2h12.003c.265 0 .348-.052.522-.256a3.45 3.45 0 00.529-1.066c.51-1.53 1.259-3.523 1.878-5.261.31-.87.59-1.674.783-2.306.196-.627.29-1.194.29-1.11a.98.98 0 00-1.005-.998h-7.086a1 1 0 01-1.005-1.006c0-1.179.257-3.288-.057-5.08-.159-.891-.454-1.643-.88-2.13a2.294 2.294 0 00-1.43-.753c-.101.57-.17 1.546-.298 2.457-.26 1.863-.752 4.221-2.744 5.374-.744.427-1.462.68-1.89.975-.43.295-.604.454-.604 1.16v8.995c0 .575.423 1.006.994 1.006z" fill="#32A071"/></svg>
